X: 5
T: The Queen Of The Rushes
R: jig
M: 6/8
L: 1/8
K: Gmaj
dc|BBB GBd|cBc ABc|BBB GBd|cAG FGA|BBB GBd|cBc ABc|ded cAG|1 AGF G:|2 AGF Gg2|||:fed efg|afd cAF|GBd gdg|afd d2g|fed efg|afd cAF|ded cAG|1 AGF Gg2:|2 AGF ABc||:d3 gfB|d3 gfB|c3 ABc|ABc ABc|d3 gfB|d3 gfc|BBB cAF|1AGF GAB:|2 AGF G3||


Tune 710	Setting 13770

